X: 40
T: Rose by the Door, The
I: Rose by the Door, The	W-29	D	waltz
C: W-29
C: Andrea Hoag 511985
M: 3/4
Z: Transcribed to abc by Mary Lou Knack
R: waltz
K: D
DE| "D"F3G F2| "A"E4 E2| "Bm"F2 G2 A2| "G"B4 d2|    "D (F#m)"AF3 A2| "F#m (Bm)"F2 E3D| "G (A)"E6-| "A"E4 DE|
    "D"F2 G3F| "A"E4 E2| "Bm (D)"F2 G2 A2| "G"B4 cd|    "D"AF3 A2| "A"F2 E3D| "D"D6-|1 D4:|2 D3|]
|:d2c| "G"B4 BA| "D (F#m)"A4 d2| "A"ed3 e2| "D"f4 f2|     "Em"e2 d2 e2 | "F#m"fa3 a2| "G"b4 af| "A"e4 e2|
     "D"f3 g2 f| "A"e4 d2| "G (Bm)"B2 A3G| "F#m"A4 dc|     "G"B4 AF| "A"E4 ED| "D"D6-|1 D3 :|2  D4|]
W: The rose by the door, I've seen it before, but never as lovely as now.
W: With you by my side, I'm filled with such pride, makes everything different somehow.
W: If my love were a boat, I'd set it afloat, and send it to gather up sun.
W: When it couldn't hold more, I'd bring it to shore, a present for my darling one.
W: Come dance through the night, your feet are so light.
W: Your hands make such music, I ne'er saw the like.
W: And when we are old, 'twill be better than gold, this day of the rose by the door.
% %begintext ragged
%% "It's hard to know where to write the dots, as they're never the same twice.  I
%% was sitting in the early morning sun on the back steps of the sound crew house at
%% Fiddle Tunes week in Port Townsend, WA.  A young couple in love came out and
%% walked across the sunny field.  Roses were growing there by the door".  Andrea
%% Hoag, 7425 Buffalo Ave, Takoma Park, MD 20912.
% %endtext
% %text 9/1/98.  From "The Waltz Book", Bill Matthiesen. For use only by Roaring Jelly members

#include "LeftHeader.h"
% ---------- page 20 ----------

